public/icons/Pfeil.svg

<?xml version="1.0" encoding="UTF-8" standalone="no"?>
<svg
   xmlns:dc="http://purl.org/dc/elements/1.1/"
   xmlns:cc="http://creativecommons.org/ns#"
   xmlns:rdf="http://www.w3.org/1999/02/22-rdf-syntax-ns#"
   xmlns:svg="http://www.w3.org/2000/svg"
   xmlns="http://www.w3.org/2000/svg"
   xmlns:sodipodi="http://sodipodi.sourceforge.net/DTD/sodipodi-0.dtd"
   xmlns:inkscape="http://www.inkscape.org/namespaces/inkscape"
   inkscape:version="1.0 (4035a4fb49, 2020-05-01)"
   sodipodi:docname="Pfeil.svg"
   id="svg503"
   version="1.1"
   height="330.66666"
   width="102.576"
   viewBox="0 0 76.932003 247.99999"
   style="isolation:isolate">
  <metadata
     id="metadata507">
    <rdf:RDF>
      <cc:Work
         rdf:about="">
        <dc:format>image/svg+xml</dc:format>
        <dc:type
           rdf:resource="http://purl.org/dc/dcmitype/StillImage" />
      </cc:Work>
    </rdf:RDF>
  </metadata>
  <sodipodi:namedview
     inkscape:current-layer="svg503"
     inkscape:window-maximized="0"
     inkscape:window-y="0"
     inkscape:window-x="0"
     inkscape:cy="245.33333"
     inkscape:cx="102.57599"
     inkscape:zoom="0.62426794"
     showgrid="false"
     id="namedview505"
     inkscape:window-height="480"
     inkscape:window-width="717"
     inkscape:pageshadow="2"
     inkscape:pageopacity="0"
     guidetolerance="10"
     gridtolerance="10"
     objecttolerance="10"
     borderopacity="1"
     bordercolor="#666666"
     pagecolor="#ffffff" />
  <defs
     id="defs495">
    <clipPath
       id="a">
      <path
         id="path492"
         d="M 0,0 H 1366 V 768 H 0 Z" />
    </clipPath>
  </defs>
  <g
     transform="translate(-606.068,-200)"
     id="g501"
     fill-rule="evenodd"
     clip-path="url(#a)">
    <path
       id="path497"
       fill="#ebebeb"
       d="m 659.534,269.455 23.452,0.522 -18.515,-34.989 -18.515,-34.988 -19.944,34.132 -19.944,34.133 23.466,0.522 V 378.72 l -23.466,-0.229 18.92,34.755 18.92,34.754 19.546,-34.379 19.546,-34.38 -23.466,-0.228 z" />
    <path
       id="path499"
       d="m 659.534,269.455 23.452,0.522 -18.515,-34.989 -18.515,-34.988 -19.944,34.132 -19.944,34.133 23.466,0.522 V 378.72 l -23.466,-0.229 18.92,34.755 18.92,34.754 19.546,-34.379 19.546,-34.38 -23.466,-0.228 z" />
  </g>
</svg>

<?xml version="1.0" encoding="UTF-8" standalone="no"?><!-- Generator: Gravit.io --><svg xmlns="http://www.w3.org/2000/svg" xmlns:xlink="http://www.w3.org/1999/xlink" style="isolation:isolate" viewBox="0 0 1366 768" width="1366pt" height="768pt"><defs><clipPath id="_clipPath_ruDzRKhhZIuU3v9Xg1Djm0ZJsAOTGzsN"><rect width="1366" height="768"/></clipPath></defs><g clip-path="url(#_clipPath_ruDzRKhhZIuU3v9Xg1Djm0ZJsAOTGzsN)"><path d=" M 659.534 269.455 L 682.986 269.977 L 682.986 269.977 L 664.471 234.988 L 645.956 200 L 626.012 234.132 L 606.068 268.265 L 629.534 268.787 L 629.534 378.72 L 606.068 378.491 L 606.068 378.491 L 624.988 413.246 L 643.908 448 L 663.454 413.621 L 683 379.241 L 659.534 379.013 L 659.534 269.455 Z " fill-rule="evenodd" fill="rgb(235,235,235)"/><path d=" M 659.534 269.455 L 682.986 269.977 L 682.986 269.977 L 664.471 234.988 L 645.956 200 L 626.012 234.132 L 606.068 268.265 L 629.534 268.787 L 629.534 378.72 L 606.068 378.491 L 606.068 378.491 L 624.988 413.246 L 643.908 448 L 663.454 413.621 L 683 379.241 L 659.534 379.013 L 659.534 269.455 Z " fill-rule="evenodd" fill="rgb(0,0,0)"/></g></svg>
